logos/tv.eenhd.svg

<?xml version="1.0" encoding="UTF-8" standalone="no"?>
<!-- Created with Inkscape (http://www.inkscape.org/) -->

<svg
   xmlns:dc="http://purl.org/dc/elements/1.1/"
   xmlns:cc="http://creativecommons.org/ns#"
   xmlns:rdf="http://www.w3.org/1999/02/22-rdf-syntax-ns#"
   xmlns:svg="http://www.w3.org/2000/svg"
   xmlns="http://www.w3.org/2000/svg"
   xmlns:inkscape="http://www.inkscape.org/namespaces/inkscape"
   version="1.1"
   width="444.90634"
   height="310"
   id="svg2">
  <metadata
     id="metadata8">
    <rdf:RDF>
      <cc:Work
         rdf:about="">
        <dc:format>image/svg+xml</dc:format>
        <dc:type
           rdf:resource="http://purl.org/dc/dcmitype/StillImage" />
        <dc:title />
      </cc:Work>
    </rdf:RDF>
  </metadata>
  <defs
     id="defs6" />
  <path
     d="M 155,5 C 72.157287,5 5,72.157287 5,155 5,237.84271 72.157287,305 155,305 237.84271,305 305,237.84271 305,155 305,72.157287 237.84271,5 155,5 z m 211.59375,111.09375 0,15.59375 0,15.59375 -13.96875,0 -14,0 0,-15.53125 0,-15.53125 -10.5625,0 -10.5625,0 0,42.25 0,42.25 10.5625,0 10.5625,0 0,-18.65625 0,-18.625 14,0 13.96875,0 0,18.625 0,18.65625 15.375,0 c 26.8666,-0.004 36.78209,-2.86617 46.71875,-13.46875 7.57394,-8.08154 11.19685,-17.51427 11.21875,-29.28125 0.0254,-13.63058 -5.44344,-25.55048 -15.0625,-32.78125 -4.96794,-3.73448 -7.27472,-4.86855 -13.9375,-6.90625 -5.35505,-1.63776 -5.93791,-1.69218 -24.90625,-1.9375 z m 21.75,15.46875 5.4375,0.34375 c 6.33389,0.3939 9.78549,1.51588 14.28125,4.59375 5.78488,3.9604 8.67284,9.90402 9.3125,19.21875 0.88591,12.90076 -3.82228,22.46369 -13.09375,26.6875 -1.77051,0.80659 -5.56972,1.76483 -8.46875,2.125 -2.89581,0.35977 -5.76799,0.65625 -6.375,0.65625 -1.04024,0 -1.09375,-1.54839 -1.09375,-26.8125 z"
     inkscape:connector-curvature="0"
     id="path2998"
     style="fill:#0088aa;fill-opacity:1;fill-rule:nonzero;stroke:none" />
  <path
     d="m 92.78125,73.65625 -37.625,3.28125 0,18.5 37.625,-3.3125 0,-18.46875 z m 81.34375,0 -37.625,3.28125 0,18.5 37.625,-3.3125 0,-18.46875 z M 74.1875,103.9375 c -6.149324,1e-4 -11.815348,1.25248 -17,3.75 -5.064141,2.37877 -9.516649,5.78703 -13.375,10.1875 -3.737813,4.40064 -6.704677,9.55338 -8.875,15.5 -2.049768,5.94676 -3.062506,12.48902 -3.0625,19.625 l 0,1.625 c -6e-6,7.49288 1.146584,14.27815 3.4375,20.34375 2.411471,5.94672 5.614788,11.06214 9.59375,15.34375 4.099498,4.1627 8.922311,7.43382 14.46875,9.8125 5.546371,2.25974 11.515775,3.375 17.90625,3.375 7.23439,0 13.6767,-1.32095 19.34375,-3.9375 5.66691,-2.73548 10.72617,-6.52995 15.1875,-11.40625 L 98.625,172.8125 c -3.134998,2.97337 -6.338315,5.3037 -9.59375,6.96875 -3.134988,1.6651 -6.70861,2.50002 -10.6875,2.5 -5.425884,2e-5 -9.980994,-1.60126 -13.71875,-4.8125 C 60.887166,174.25756 58.460134,169.42247 57.375,163 l 56.25,0 c 0.54356,4.2533 1.50228,8.2515 2.90625,11.96875 2.41147,5.94672 5.61479,11.06214 9.59375,15.34375 4.0995,4.1627 8.92231,7.43382 14.46875,9.8125 5.54637,2.25974 11.51577,3.375 17.90625,3.375 7.23439,0 13.6767,-1.32095 19.34375,-3.9375 5.66691,-2.73548 10.72617,-6.52995 15.1875,-11.40625 l -13.1875,-15.34375 c -3.135,2.97337 -6.33831,5.3037 -9.59375,6.96875 -3.13499,1.6651 -6.67736,2.50002 -10.65625,2.5 -5.42588,2e-5 -10.01224,-1.60126 -13.75,-4.8125 -3.73783,-3.21119 -6.16487,-8.04628 -7.25,-14.46875 l 56.6875,0 0,38.34375 25.65625,0 0,-57.59375 c -4e-5,-5.70877 1.28041,-9.95195 3.8125,-12.6875 2.65259,-2.85434 6.09236,-4.28118 10.3125,-4.28125 4.34061,7e-5 7.71346,1.42691 10.125,4.28125 2.41142,2.73555 3.62494,6.97873 3.625,12.6875 l 0,57.59375 25.6875,0 0,-65.09375 c -9e-5,-9.99038 -2.52972,-17.85359 -7.59375,-23.5625 -4.94362,-5.82767 -11.95701,-8.7499 -21,-8.75 -6.14934,1e-4 -11.14168,1.4955 -15,4.46875 -3.85841,2.97344 -7.19558,6.3817 -9.96875,10.1875 l 0,-12.84375 -25.65625,0 0,33.96875 c -0.32444,-1.6696 -0.71807,-3.30076 -1.15625,-4.90625 -1.68812,-6.18449 -4.28468,-11.54293 -7.78125,-16.0625 -3.37615,-4.63834 -7.65913,-8.25836 -12.84375,-10.875 -5.18475,-2.61645 -11.18983,-3.9374 -18.0625,-3.9375 -6.14932,1e-4 -11.81535,1.25248 -17,3.75 -5.06414,2.37877 -9.5479,5.78703 -13.40625,10.1875 -3.73781,4.40064 -6.67343,9.55338 -8.84375,15.5 -0.81874,2.37531 -1.47704,4.87246 -1.96875,7.4375 -0.3646,-2.04666 -0.77977,-4.0481 -1.3125,-6 -1.68812,-6.18449 -4.28468,-11.54293 -7.78125,-16.0625 -3.37615,-4.63834 -7.659134,-8.25836 -12.84375,-10.875 -5.18475,-2.61645 -11.221079,-3.9374 -18.09375,-3.9375 z m 0,20.875 c 4.822912,8e-5 8.632987,1.91294 11.40625,5.71875 2.773143,3.80595 4.459565,9.02726 5.0625,15.6875 l -33.46875,0 c 0.723413,-6.77917 2.543686,-12.00048 5.4375,-15.6875 3.014314,-3.80581 6.860064,-5.71867 11.5625,-5.71875 z m 81.25,0 c 4.82291,8e-5 8.60174,1.91294 11.375,5.71875 2.77314,3.80595 4.45956,9.02726 5.0625,15.6875 l -33.4375,0 c 0.72341,-6.77917 2.51244,-12.00048 5.40625,-15.6875 3.01431,-3.80581 6.89131,-5.71867 11.59375,-5.71875 z"
     inkscape:connector-curvature="0"
     id="path3069"
     style="fill:#ffffff;stroke:none" />
</svg>

<?xml version="1.0" encoding="UTF-8" standalone="no"?>
<!-- Created with Inkscape (http://www.inkscape.org/) -->

<svg
   xmlns:dc="http://purl.org/dc/elements/1.1/"
   xmlns:cc="http://creativecommons.org/ns#"
   xmlns:rdf="http://www.w3.org/1999/02/22-rdf-syntax-ns#"
   xmlns:svg="http://www.w3.org/2000/svg"
   xmlns="http://www.w3.org/2000/svg"
   xmlns:sodipodi="http://sodipodi.sourceforge.net/DTD/sodipodi-0.dtd"
   xmlns:inkscape="http://www.inkscape.org/namespaces/inkscape"
   id="svg2"
   version="1.1"
   inkscape:version="0.48.2 r9819"
   width="444.90634"
   height="310"
   sodipodi:docname="eén hd.svg">
  <metadata
     id="metadata8">
    <rdf:RDF>
      <cc:Work
         rdf:about="">
        <dc:format>image/svg+xml</dc:format>
        <dc:type
           rdf:resource="http://purl.org/dc/dcmitype/StillImage" />
        <dc:title></dc:title>
      </cc:Work>
    </rdf:RDF>
  </metadata>
  <defs
     id="defs6" />
  <sodipodi:namedview
     pagecolor="#ffffff"
     bordercolor="#666666"
     borderopacity="1"
     objecttolerance="10"
     gridtolerance="10"
     guidetolerance="10"
     inkscape:pageopacity="0"
     inkscape:pageshadow="2"
     inkscape:window-width="1920"
     inkscape:window-height="1056"
     id="namedview4"
     showgrid="false"
     fit-margin-top="5"
     fit-margin-left="5"
     fit-margin-right="5"
     fit-margin-bottom="5"
     inkscape:zoom="1.0712668"
     inkscape:cx="424.08414"
     inkscape:cy="194.60396"
     inkscape:window-x="0"
     inkscape:window-y="24"
     inkscape:window-maximized="1"
     inkscape:current-layer="svg2" />
  <path
     style="fill:#0088aa;fill-opacity:1;fill-rule:nonzero;stroke:none"
     d="M 155,5 C 72.157287,5 5,72.157287 5,155 5,237.84271 72.157287,305 155,305 237.84271,305 305,237.84271 305,155 305,72.157287 237.84271,5 155,5 z m 211.59375,111.09375 0,15.59375 0,15.59375 -13.96875,0 -14,0 0,-15.53125 0,-15.53125 -10.5625,0 -10.5625,0 0,42.25 0,42.25 10.5625,0 10.5625,0 0,-18.65625 0,-18.625 14,0 13.96875,0 0,18.625 0,18.65625 15.375,0 c 26.8666,-0.004 36.78209,-2.86617 46.71875,-13.46875 7.57394,-8.08154 11.19685,-17.51427 11.21875,-29.28125 0.0254,-13.63058 -5.44344,-25.55048 -15.0625,-32.78125 -4.96794,-3.73448 -7.27472,-4.86855 -13.9375,-6.90625 -5.35505,-1.63776 -5.93791,-1.69218 -24.90625,-1.9375 z m 21.75,15.46875 5.4375,0.34375 c 6.33389,0.3939 9.78549,1.51588 14.28125,4.59375 5.78488,3.9604 8.67284,9.90402 9.3125,19.21875 0.88591,12.90076 -3.82228,22.46369 -13.09375,26.6875 -1.77051,0.80659 -5.56972,1.76483 -8.46875,2.125 -2.89581,0.35977 -5.76799,0.65625 -6.375,0.65625 -1.04024,0 -1.09375,-1.54839 -1.09375,-26.8125 z"
     id="path2998"
     inkscape:connector-curvature="0"
     sodipodi:nodetypes="sssssccccccccccccccccccccssssccccssssssc" />
  <path
     style="fill:#ffffff;stroke:none;stroke-width:1px;stroke-linecap:butt;stroke-linejoin:miter;stroke-opacity:1"
     d="M 92.78125 73.65625 L 55.15625 76.9375 L 55.15625 95.4375 L 92.78125 92.125 L 92.78125 73.65625 z M 174.125 73.65625 L 136.5 76.9375 L 136.5 95.4375 L 174.125 92.125 L 174.125 73.65625 z M 74.1875 103.9375 C 68.038176 103.9376 62.372152 105.18998 57.1875 107.6875 C 52.123359 110.06627 47.670851 113.47453 43.8125 117.875 C 40.074687 122.27564 37.107823 127.42838 34.9375 133.375 C 32.887732 139.32176 31.874994 145.86402 31.875 153 L 31.875 154.625 C 31.874994 162.11788 33.021584 168.90315 35.3125 174.96875 C 37.723971 180.91547 40.927288 186.03089 44.90625 190.3125 C 49.005748 194.4752 53.828561 197.74632 59.375 200.125 C 64.921371 202.38474 70.890775 203.5 77.28125 203.5 C 84.51564 203.5 90.95795 202.17905 96.625 199.5625 C 102.29191 196.82702 107.35117 193.03255 111.8125 188.15625 L 98.625 172.8125 C 95.490002 175.78587 92.286685 178.1162 89.03125 179.78125 C 85.896262 181.44635 82.32264 182.28127 78.34375 182.28125 C 72.917866 182.28127 68.362756 180.67999 64.625 177.46875 C 60.887166 174.25756 58.460134 169.42247 57.375 163 L 113.625 163 C 114.16856 167.2533 115.12728 171.2515 116.53125 174.96875 C 118.94272 180.91547 122.14604 186.03089 126.125 190.3125 C 130.2245 194.4752 135.04731 197.74632 140.59375 200.125 C 146.14012 202.38474 152.10952 203.5 158.5 203.5 C 165.73439 203.5 172.1767 202.17905 177.84375 199.5625 C 183.51066 196.82702 188.56992 193.03255 193.03125 188.15625 L 179.84375 172.8125 C 176.70875 175.78587 173.50544 178.1162 170.25 179.78125 C 167.11501 181.44635 163.57264 182.28127 159.59375 182.28125 C 154.16787 182.28127 149.58151 180.67999 145.84375 177.46875 C 142.10592 174.25756 139.67888 169.42247 138.59375 163 L 195.28125 163 L 195.28125 201.34375 L 220.9375 201.34375 L 220.9375 143.75 C 220.93746 138.04123 222.21791 133.79805 224.75 131.0625 C 227.40259 128.20816 230.84236 126.78132 235.0625 126.78125 C 239.40311 126.78132 242.77596 128.20816 245.1875 131.0625 C 247.59892 133.79805 248.81244 138.04123 248.8125 143.75 L 248.8125 201.34375 L 274.5 201.34375 L 274.5 136.25 C 274.49991 126.25962 271.97028 118.39641 266.90625 112.6875 C 261.96263 106.85983 254.94924 103.9376 245.90625 103.9375 C 239.75691 103.9376 234.76457 105.433 230.90625 108.40625 C 227.04784 111.37969 223.71067 114.78795 220.9375 118.59375 L 220.9375 105.75 L 195.28125 105.75 L 195.28125 139.71875 C 194.95681 138.04915 194.56318 136.41799 194.125 134.8125 C 192.43688 128.62801 189.84032 123.26957 186.34375 118.75 C 182.9676 114.11166 178.68462 110.49164 173.5 107.875 C 168.31525 105.25855 162.31017 103.9376 155.4375 103.9375 C 149.28818 103.9376 143.62215 105.18998 138.4375 107.6875 C 133.37336 110.06627 128.8896 113.47453 125.03125 117.875 C 121.29344 122.27564 118.35782 127.42838 116.1875 133.375 C 115.36876 135.75031 114.71046 138.24746 114.21875 140.8125 C 113.85415 138.76584 113.43898 136.7644 112.90625 134.8125 C 111.21813 128.62801 108.62157 123.26957 105.125 118.75 C 101.74885 114.11166 97.465866 110.49164 92.28125 107.875 C 87.0965 105.25855 81.060171 103.9376 74.1875 103.9375 z M 74.1875 124.8125 C 79.010412 124.81258 82.820487 126.72544 85.59375 130.53125 C 88.366893 134.3372 90.053315 139.55851 90.65625 146.21875 L 57.1875 146.21875 C 57.910913 139.43958 59.731186 134.21827 62.625 130.53125 C 65.639314 126.72544 69.485064 124.81258 74.1875 124.8125 z M 155.4375 124.8125 C 160.26041 124.81258 164.03924 126.72544 166.8125 130.53125 C 169.58564 134.3372 171.27206 139.55851 171.875 146.21875 L 138.4375 146.21875 C 139.16091 139.43958 140.94994 134.21827 143.84375 130.53125 C 146.85806 126.72544 150.73506 124.81258 155.4375 124.8125 z "
     id="path3069" />
</svg>
